src/assets/advantages/wallet-icon.svg

<svg width="52" height="52" class="iconPrimary" viewBox="0 0 52 52" fill="none" xmlns="http://www.w3.org/2000/svg">
<path d="M45.8275 39.3098V44.8297C45.8275 47.4296 43.7592 49.5358 41.2062 49.5358H7.11538C4.56239 49.5358 2.49414 47.4296 2.49414 44.8297V19.2198C2.49414 16.6199 4.56239 14.5137 7.11538 14.5137H41.2033C43.7563 14.5137 45.8245 16.6199 45.8245 19.2198V24.7397" stroke="currentColor" stroke-linecap="round" stroke-linejoin="round"/>
<path d="M30.689 24.9258H49.5683V39.4395H30.689C28.2039 39.4395 26.187 37.3976 26.187 34.8818V29.4865C26.187 26.9706 28.2039 24.9288 30.689 24.9288V24.9258Z" stroke="currentColor" stroke-linecap="round" stroke-linejoin="round"/>
<path d="M16.5229 10.0963L34.7224 2.52393L38.0337 9.81473" stroke="currentColor" stroke-linecap="round" stroke-linejoin="round"/>
<path d="M32.7338 33.4445C33.4225 33.4445 33.9808 32.8795 33.9808 32.1825C33.9808 31.4855 33.4225 30.9204 32.7338 30.9204C32.0451 30.9204 31.4868 31.4855 31.4868 32.1825C31.4868 32.8795 32.0451 33.4445 32.7338 33.4445Z" stroke="currentColor" stroke-linecap="round" stroke-linejoin="round"/>
</svg>

<svg xmlns="http://www.w3.org/2000/svg" width="52" height="52" fill="none" class="iconPrimary" viewBox="0 0 52 52">
    <path stroke="currentColor" stroke-linecap="round" stroke-linejoin="round" d="M45.828 39.31v5.52c0 2.6-2.069 4.706-4.622 4.706H7.116c-2.554 0-4.622-2.106-4.622-4.706V19.22c0-2.6 2.068-4.706 4.621-4.706h34.088c2.553 0 4.621 2.106 4.621 4.706v5.52"/>
    <path stroke="currentColor" stroke-linecap="round" stroke-linejoin="round" d="M30.689 24.926h18.88V39.44h-18.88c-2.485 0-4.502-2.042-4.502-4.558v-5.395c0-2.516 2.017-4.558 4.502-4.558v-.003ZM16.523 10.096l18.2-7.572 3.31 7.29"/>
    <path stroke="currentColor" stroke-linecap="round" stroke-linejoin="round" d="M32.734 33.444c.688 0 1.247-.565 1.247-1.262 0-.697-.559-1.262-1.247-1.262-.689 0-1.247.565-1.247 1.262 0 .697.558 1.262 1.247 1.262Z"/>
</svg>
